X:1
T:Blagoslovi dusje
T:Blagoslovi dusje
T:Op. 9, #1
T:P. Tsjesnokov
T:Liturgi
C:P. Tsjesnokov
Z:Liturgi
%%score [ 1 2 3 4 ]
L:1/8
Q:1/4=80
M:2/4
K:G
V:1 treble nm="S1"
V:2 treble nm="S2"
V:3 treble nm="A1"
V:4 treble nm="A2"
V:1
 z!mf! d d e | d3 c | d2 d e | d3 d | d!p! B B A | B2 c2 | (A3 G) | B3 B | B!mf! d d e | d3 c | %10
w: Bla- go- slo-|vi du-|sje mo- ja|Gos- po-|da, bla- go- slo-|ven e-|si _|Gos- po-|di, bla- go- slo|vi du-|
 d2 d e | d3 d | !breath!d2!<(! d e | =f4!<)! | e e d c | d4 |!<(! d2 d e!<)! | =f2 f f | %18
w: sje mo- ja|Gos- po-|da i vsja|vnut-|ren- nja- ja mo-|ja|i- mja svja-|to- e E-|
!>(! e4!>)! | z d d d | c c B2 |!>(! A3 B!>)! | B4- | B2 z2 |] %24
w: go.|Bla- go- slo-|ven e- si|Gos- po-|di.|_|
V:2
 z!mf! B B B | B3 c | B2 B B | B3 B | B!p! G G G | G2 G2 | G4 | G3 G | G!mf! B B B | B3 c | %10
w: Bla- go- slo-|vi du-|sje mo- ja|Gos- po-|da, bla- go- slo-|ven e-|si|Gos- po-|di, bla- go- slo|vi du-|
 B2 B B | B3 B | !breath!B2!<(! B c | d4!<)! | c c B c | B4 |!<(! B2 B c!<)! | B2 B B | %18
w: sje mo- ja|Gos- po-|da i vsja|vnut-|ren- nja- ja mo-|ja|i- mja svja-|to- e E-|
!>(! B4!>)! | z ^G G G | A A =G2 |!>(! G3 F!>)! | G4- | G2 z2 |] %24
w: go.|Bla- go- slo-|ven e- si|Gos- po-|di.|_|
V:3
 z!mf! G G G | G3 A | G2 G G | G3 G | G!p! D D C | D2 E2 | (C3 E) | D3 D | D!mf! G G G | G3 A | %10
w: Bla- go- slo-|vi du-|sje mo- ja|Gos- po-|da, bla- go- slo-|ven e-|si _|Gos- po-|di, bla- go- slo|vi du-|
 G2 G G | G3 G | !breath!G2!<(! G G | A4!<)! | G G G A | G4 |!<(! G2 G G!<)! | A2 A A | %18
w: sje mo- ja|Gos- po-|da i vsja|vnut-|ren- nja- ja mo-|ja|i- mja svja-|to- e E-|
!>(! ^G4!>)! | z E E E | E E D2 |!>(! E3 D!>)! | D4- | D2 z2 |] %24
w: go.|Bla- go- slo-|ven e- si|Gos- po-|di.|_|
V:4
 z!mf! G G E | G3 A | G2 G E | G3 G | G!p! G, G, G, | G,2 G,2 | G,4 | G,3 G, | G,!mf! G G E | %9
w: Bla- go- slo-|vi du-|sje mo- ja|Gos- po-|da, bla- go- slo-|ven e-|si|Gos- po-|di, bla- go- slo|
 G3 A | G2 G E | G3 G | !breath!G2!<(! G E | D4!<)! | E E G A | G4 |!<(! G2 G E!<)! | D2 D D | %18
w: vi du-|sje mo- ja|Gos- po-|da i vsja|vnut-|ren- nja- ja mo-|ja|i- mja svja-|to- e E-|
!>(! E4!>)! | z B, B, B, | A, A, B,2 |!>(! C3 D!>)! | G,4- | G,2 z2 |] %24
w: go.|Bla- go- slo-|ven e- si|Gos- po-|di.|_|

